X: 38525
T: Step Dance Tune
R: reel
M: 4/4
K: Edorian
GA|:BEGA Bcdc|BEGA B2 AG|FDFG ABAG|FDFD d2 cd|
BEGA Bcdc|BEGA B2 AG|FDFA dedB|1 [M:6/4]AFDE FEED E2 dc:|2 AFDF E4||
|:Beed efed|Beed f2 ed|Addc dedB|AddB f2 ed|
Beed efed|Beed f2 ed|BABc dedB|AFDF E4:|

